src/lib/packages/icons/src/assets/line/download.svg

<svg xmlns="http://www.w3.org/2000/svg" width="24" height="24" fill="none"><path fill="currentColor" d="M8.47 13.53a.75.75 0 1 1 1.061-1.061l1.72 1.72V3a.75.75 0 0 1 1.5 0v11.189l1.72-1.72a.75.75 0 0 1 1.061 1.061l-3 3a.749.749 0 0 1-.818.162.75.75 0 0 1-.244-.162l-3-3ZM18 9.25a.75.75 0 0 0 0 1.5c1.577 0 2.25.673 2.25 2.25v5c0 1.577-.673 2.25-2.25 2.25H6c-1.577 0-2.25-.673-2.25-2.25v-5c0-1.577.673-2.25 2.25-2.25a.75.75 0 0 0 0-1.5c-2.418 0-3.75 1.332-3.75 3.75v5c0 2.418 1.332 3.75 3.75 3.75h12c2.418 0 3.75-1.332 3.75-3.75v-5c0-2.418-1.332-3.75-3.75-3.75Z"/></svg>

<svg width="24" height="24" viewBox="0 0 24 24" fill="none" xmlns="http://www.w3.org/2000/svg">
<path d="M8.46997 13.53C8.17697 13.237 8.17697 12.762 8.46997 12.469C8.76297 12.176 9.23801 12.176 9.53101 12.469L11.251 14.189V3C11.251 2.586 11.587 2.25 12.001 2.25C12.415 2.25 12.751 2.586 12.751 3V14.189L14.4709 12.469C14.7639 12.176 15.239 12.176 15.532 12.469C15.825 12.762 15.825 13.237 15.532 13.53L12.532 16.53C12.463 16.599 12.3801 16.654 12.2881 16.692C12.1961 16.73 12.099 16.75 12.001 16.75C11.903 16.75 11.8061 16.73 11.7141 16.692C11.6221 16.654 11.539 16.599 11.47 16.53L8.46997 13.53ZM18 9.25C17.586 9.25 17.25 9.586 17.25 10C17.25 10.414 17.586 10.75 18 10.75C19.577 10.75 20.25 11.423 20.25 13V18C20.25 19.577 19.577 20.25 18 20.25H6C4.423 20.25 3.75 19.577 3.75 18V13C3.75 11.423 4.423 10.75 6 10.75C6.414 10.75 6.75 10.414 6.75 10C6.75 9.586 6.414 9.25 6 9.25C3.582 9.25 2.25 10.582 2.25 13V18C2.25 20.418 3.582 21.75 6 21.75H18C20.418 21.75 21.75 20.418 21.75 18V13C21.75 10.582 20.418 9.25 18 9.25Z" fill="currentColor"/>
</svg>
